X: 030425
T: Chicago Jig 
Z: B.Black
M: 6/8
L: 1/8
R: jig
N: from Terry Teahan via Liz Carroll & Seamus Egan
K: G
A/2G/2|F2 D D2 A/2G/2|F2 D D2 A/2G/2|F2 D DED|\ 
C2 A, A,2 A/2G/2 | 
F2 D D2 A/2G/2 | F2 D D2 A | BAB cAF | AGF G2 :|
A | BAB cBc | d2 d ABc | B2 G GAG | F2 D D2 A |
BAB cBc | d2 d ABc |  BAB cAF | AGF G2 :|
